X:32
T: DRAUSSE IM GRUENE WALD
N: E1027
O: Europa, Mitteleuropa, Deutschland, Rheinpfalz, Kaiserslautern,
R: Tanz - Lied
M: 3/8
L: 1/8
K: F
 | ccf | ddc |
BBA | GFz |
AAB | GGc |
AAB | G2F |
AAB | GGc |
AAB | GFz

@@@ Tune index: 4716
